22x22/actions/image-filter.svg

<svg xmlns="http://www.w3.org/2000/svg" width="22" height="22" viewBox="0 0 22 22">
 <defs>
  <style id="current-color-scheme" type="text/css">
   .ColorScheme-Text { color:#323a41; } .ColorScheme-Highlight { color:#4285f4; } .ColorScheme-NeutralText { color:#ff9800; } .ColorScheme-PositiveText { color:#4caf50; } .ColorScheme-NegativeText { color:#f44336; }
  </style>
 </defs>
 <path style="fill:currentColor" class="ColorScheme-Text" d="M 1 1 L 1 15 L 1.390625 15 A 0.50009 0.50009 0 0 0 1.6191406 15 L 15 15 L 15 13 L 3 13 L 3 11.388672 C 3.12 11.156142 3.2395581 10.923138 3.3925781 10.705078 C 4.2091181 9.5414781 5.5389719 8.5588281 8.0761719 8.0488281 C 10.750072 7.5112681 12.289194 6.5649406 13.121094 5.3691406 C 13.953024 4.1733406 14.031912 2.8102656 14.013672 1.5722656 A 0.50005 0.50005 0 0 0 13.5 1.0742188 A 0.50005 0.50005 0 0 0 13.013672 1.5878906 C 13.031072 2.7696906 12.943668 3.8720281 12.298828 4.7988281 C 11.654018 5.7256581 10.405606 6.5604594 7.8789062 7.0683594 C 5.5249063 7.5415994 3.9946 8.4605437 3 9.5898438 L 3 1 L 1 1 z" transform="translate(3 3)"/>
 <path style="fill:currentColor;opacity:0.3" class="ColorScheme-Text" d="M 14 2.4003906 C 13.9566 3.3996306 13.771204 4.4346406 13.121094 5.3691406 C 12.289174 6.5649406 10.750072 7.5112281 8.0761719 8.0488281 C 5.5389719 8.5588881 4.2091781 9.5414781 3.3925781 10.705078 C 3.2395581 10.923138 3.12 11.156142 3 11.388672 L 3 13 L 14 13 L 14 2.4003906 z" transform="translate(3 3)"/>
</svg>

<svg xmlns="http://www.w3.org/2000/svg" width="22" height="22"><defs><style id="current-color-scheme" type="text/css">.ColorScheme-Text{color:#323a41}</style></defs><path style="fill:currentColor" class="ColorScheme-Text" d="M1 1v14h.39a.5.5 0 0 0 .23 0H15v-2H3v-1.611c.12-.233.24-.466.393-.684.816-1.164 2.146-2.146 4.683-2.656 2.674-.538 4.213-1.484 5.045-2.68.832-1.196.91-2.559.893-3.797a.5.5 0 0 0-.514-.498.5.5 0 0 0-.486.514c.017 1.182-.07 2.284-.715 3.21-.645.928-1.893 1.762-4.42 2.27C5.525 7.542 3.995 8.461 3 9.59V1H1z" transform="translate(3 3)"/><path style="fill:currentColor;opacity:.3" class="ColorScheme-Text" d="M14 2.4c-.043 1-.229 2.035-.879 2.97-.832 1.195-2.37 2.141-5.045 2.679-2.537.51-3.867 1.492-4.683 2.656-.153.218-.273.451-.393.684V13h11V2.4z" transform="translate(3 3)"/></svg>
